X: 10093
T: ROWENA'S HORNPIPE
C: Bob McQuillen 28 Aug 93
B: Bob's Note Book 10 #93
%R: hornpipe, reel
Z: 2020 John Chambers <jc:trillian.mit.edu>
M: C
L: 1/8
K: D
FG \
| A2d2 AGFG | Adfa f2dB | Adfd gdfd | efge cAdB |\
| A2d2 AGFG | AFAd f2ba | gfed ceag | f2d2 d2  :|
|: de \
| f2d2 Adfa | fafd A2AG | FDFA dAdf | gfed ecde |\
| f2fd Adfa | fdBd edcB | Adfa gecd | e2d2 d2  :|
%%begintext align
%% Have you ever been to Nellysford,
%% VA? Me neither, but I'll tell you who lives there - Rowena Owell
%% (pr. \-O-well), that's who! And Rowena is two things 1) a real neat lady,
%% and 2) a damn good flute player. So last summer we had such a
%% good time playing together for a little dance each evening at Augusta
%% that I said, "Rowena needs a tune!"  And so here it is, Rowena, and I hope
%% it toots good on your flute - see you next year, and I hope we do it
%% all over again!
%%endtext

%%sep 1 1 500

%%sep 1 1 500

